svg/u1f45d.svg

<svg viewBox="0 0 128 128" xmlns="http://www.w3.org/2000/svg">
  <g>
    <g>
      <path d="M13.47,98.62c-0.73-1.25-1.01-4.32-0.72-8.05c0.85-9.17,7.29-39.12,54.28-39.12 c46.35,0,53.96,28.49,55.18,37.22c0.87,6.16-0.01,8.77-0.65,9.8l-5.01,5.1l-98.64,0.55L13.47,98.62z" fill="#FFE36C"/>
      <path d="M67.03,52.45c10.31,0,19.41,1.46,27.05,4.34c6.37,2.4,11.8,5.82,16.12,10.16 c8.36,8.38,10.5,18.09,11.03,21.87c0.84,5.95-0.04,8.31-0.46,9.05l-4.63,4.72l-97.74,0.55l-4.1-5.06 c-0.5-0.92-0.85-3.52-0.56-7.37c0.44-4.74,2.23-13.91,9.28-22.13C32.18,57.87,46.98,52.45,67.03,52.45 M67.03,50.45 c-48.5,0-54.48,31.45-55.28,40.05c-0.1,1.3-0.45,6.54,0.9,8.7l4.79,5.93l99.53-0.56l5.37-5.47c0.84-1.27,1.75-4.2,0.85-10.57 C121.72,77.97,112.5,50.45,67.03,50.45L67.03,50.45z" fill="#82AEC0"/>
    </g>
    <path d="M13.45,102.5c1.1,0,2,0.8,2.1,1.9c0.1,0.6-0.1,1.1-0.4,1.5s-0.9,0.7-1.4,0.8c-0.1,0-0.1,0-0.2,0 c-1.1,0-2-0.8-2.1-1.9c-0.1-1.2,0.7-2.2,1.9-2.3H13.45 M13.45,99.5c-0.2,0-0.4,0-0.6,0c-2.8,0.3-4.8,2.8-4.5,5.6 c0.3,2.6,2.5,4.5,5.1,4.5c0.2,0,0.4,0,0.6,0c2.8-0.3,4.8-2.8,4.5-5.6C18.25,101.4,16.05,99.5,13.45,99.5z" fill="#82AEC0"/>
    <path d="M118.49,95.86c-0.9-8.6-2.4-38.8-50.9-38.8s-50,30.3-50.8,38.9c-0.1,1.3-4.8,2.6-4.1,3.7l12.5,20.3 c1.55,2.66,4.16,3.15,6.36,3.15l28.34-0.65c5.4-0.1,9.31-0.15,14.71-0.05l29.3,0.7c3.07,0.19,4.74-1.49,5.99-3.15l12.5-20.4 C123.29,98.46,118.59,97.16,118.49,95.86z" fill="#FFC107"/>
    <path d="M9.39,122.45l-3.86-1.51c-1.73-0.63-2.69-2.57-1.96-4.29l5.09-8c0.7-1.52,2.42-2.3,3.97-1.8 c1.55,0.51,2.54,2.15,2.12,3.81l-1.25,9.61C13.07,122.03,11.12,123.09,9.39,122.45z" fill="#82AEC0"/>
    <path d="M10.5,108.43c0,0-4.48,6.93-4.95,8.02c-0.47,1.09-1.07,2.74,2.37,3.86 c0.54,0.17,2.62-7.95,3.07-9.67C11.45,108.92,10.5,108.43,10.5,108.43z" fill="#94D1E0"/>
    <path d="M118.49,95.86c-0.36-3.42-0.81-10.26-4.28-17.25c-1.93-3.82-4.99-3.01-6.42-0.7 c-1.77,2.86-5.23,10.74-2.68,16c1.84,3.77,2.92,7.3,3.53,10.38c1.22,6.13-3.48,11.85-9.74,11.85H36.96 c-6.2,0-10.87-5.61-9.76-11.71c0.58-3.17,1.46-6.76,2.81-10.52c2.23-6.23-0.91-13.14-2.68-16c-1.42-2.29-4.47-2.72-5.76-0.36 c-3.99,7.4-4.45,14.81-4.78,18.42c-0.1,1.3-4.8,2.6-4.1,3.7l12.5,20.3c1.55,2.66,4.16,3.15,6.36,3.15l28.34-0.65 c5.4-0.1,9.31-0.15,14.71-0.05l29.3,0.7c3.07,0.19,4.74-1.49,5.99-3.15l12.5-20.4C123.29,98.46,118.59,97.16,118.49,95.86z" fill="#F2A600"/>
  </g>
</svg>

<svg viewBox="0 0 128 128" xmlns="http://www.w3.org/2000/svg">
  <defs/>
  <path d="M13.47,98.62 C12.74,97.37 12.46,94.3 12.75,90.57 C13.6,81.4 20.04,51.45 67.03,51.45 C113.38,51.45 120.99,79.94 122.21,88.67 C123.08,94.83 122.2,97.44 121.56,98.47 L116.55,103.57 L17.91,104.12 L13.47,98.62 Z" fill="#FFE36C"/>
  <path d="M67.03,52.45 C77.34,52.45 86.44,53.91 94.08,56.79 C100.45,59.19 105.88,62.61 110.2,66.95 C118.56,75.33 120.7,85.04 121.23,88.82 C122.07,94.77 121.19,97.13 120.77,97.87 L116.14,102.59 L18.4,103.14 L14.3,98.08 C13.8,97.16 13.45,94.56 13.74,90.71 C14.18,85.97 15.97,76.8 23.02,68.58 C32.18,57.87 46.98,52.45 67.03,52.45 M67.03,50.45 C18.53,50.45 12.55,81.9 11.75,90.5 C11.65,91.8 11.3,97.04 12.65,99.2 L17.44,105.13 L116.97,104.57 L122.34,99.1 C123.18,97.83 124.09,94.9 123.19,88.53 C121.72,77.97 112.5,50.45 67.03,50.45 L67.03,50.45 Z" fill="#82AEC0"/>
  <path d="M13.45,102.5 C14.55,102.5 15.45,103.3 15.55,104.4 C15.65,105 15.45,105.5 15.15,105.9 C14.85,106.3 14.25,106.6 13.75,106.7 C13.65,106.7 13.65,106.7 13.55,106.7 C12.45,106.7 11.55,105.9 11.45,104.8 C11.35,103.6 12.15,102.6 13.35,102.5 L13.45,102.5 M13.45,99.5 C13.25,99.5 13.05,99.5 12.85,99.5 C10.05,99.8 8.05,102.3 8.35,105.1 C8.65,107.7 10.85,109.6 13.45,109.6 C13.65,109.6 13.85,109.6 14.05,109.6 C16.85,109.3 18.85,106.8 18.55,104 C18.25,101.4 16.05,99.5 13.45,99.5 Z" fill="#82AEC0"/>
  <path d="M118.49,95.86 C117.59,87.26 116.09,57.06 67.59,57.06 C19.09,57.06 17.59,87.36 16.79,95.96 C16.69,97.26 11.99,98.56 12.69,99.66 L25.19,119.96 C26.74,122.62 29.35,123.11 31.55,123.11 L59.89,122.46 C65.29,122.36 69.2,122.31 74.6,122.41 L103.9,123.11 C106.97,123.3 108.64,121.62 109.89,119.96 L122.39,99.56 C123.29,98.46 118.59,97.16 118.49,95.86 Z" fill="#FFC107"/>
  <path d="M9.39,122.45 L5.53,120.94 C3.8,120.31 2.84,118.37 3.57,116.65 L8.66,108.65 C9.36,107.13 11.08,106.35 12.63,106.85 C14.18,107.36 15.17,109 14.75,110.66 L13.5,120.27 C13.07,122.03 11.12,123.09 9.39,122.45 Z" fill="#82AEC0"/>
  <path d="M10.5,108.43 C10.5,108.43 6.02,115.36 5.55,116.45 C5.08,117.54 4.48,119.19 7.92,120.31 C8.46,120.48 10.54,112.36 10.99,110.64 C11.45,108.92 10.5,108.43 10.5,108.43 Z" fill="#94D1E0"/>
  <path d="M118.49,95.86 C118.13,92.44 117.68,85.6 114.21,78.61 C112.28,74.79 109.22,75.6 107.79,77.91 C106.02,80.77 102.56,88.65 105.11,93.91 C106.95,97.68 108.03,101.21 108.64,104.29 C109.86,110.42 105.16,116.14 98.9,116.14 L36.96,116.14 C30.76,116.14 26.09,110.53 27.2,104.43 C27.78,101.26 28.66,97.67 30.01,93.91 C32.24,87.68 29.1,80.77 27.33,77.91 C25.91,75.62 22.86,75.19 21.57,77.55 C17.58,84.95 17.12,92.36 16.79,95.97 C16.69,97.27 11.99,98.57 12.69,99.67 L25.19,119.97 C26.74,122.63 29.35,123.12 31.55,123.12 L59.89,122.47 C65.29,122.37 69.2,122.32 74.6,122.42 L103.9,123.12 C106.97,123.31 108.64,121.63 109.89,119.97 L122.39,99.57 C123.29,98.46 118.59,97.16 118.49,95.86 Z" fill="#F2A600"/>
</svg>
